X:1
T:Fillid'è forzà homai
T:Fillid'è forzà homai
T:Domenico Obizzi
T:Arietta
T:Source :Madrigali et arie a voce sola---Libro I ---Venetia---A.Vincenti---1627. Editor : André Vierendeels (08/03/16).
T:Notes  : Original clefs : C1, F4 Editorial accidentals above the staff Dotted brackets indicate black notes Note values have been halved in the 3-beat measures Notation in original print: " Alfabeto d'ariette per la Chitarra alla Spagnola", realised by the ediotor.        
T:©
T:©
T:©
T:©
T:©
T:©
T:©
C:Domenico Obizzi
Z:©
%%score 1 { ( 2 3 ) | 4 }
L:1/8
Q:1/4=110
M:4/4
K:C
V:1 treble nm="Soprano" snm="S"
V:2 treble nm="BC" snm="BC"
V:3 treble 
V:4 bass 
V:1
 A2 G2 F2 FE | D4 D2 DE | F2 GG AGAF | G4 z2 cd | e2 dd cd/e/ AB/c/ | B4 B2 dA | BAB^c d2 dd | %7
w: Fil- lid' è for- za'ho-|ma- i, ch'a- pra'il|var- co'a'i la- men- * * *|ti, e con|mu- si- ci'ac- cen- * * * * *|* ti, so- pra'in|par- * * * te i miei|
w: Io t'a- mo, io con-|fes- so, a- mo|ma non a- do- * * *|ro, ar- do|ma si ma non _ _ mo- * *|* ro, e'un a-|mor _ _ _ sen- za ec-|
w: Chi mi mos- se'à mi-|ra- ti, don- na|bu- giar- da'e _ ser- * *|ra, ri- spon-|di men- so- gnie- * * * * *|* ra, chi mi|mos- * * * * se'ad a-|
w: Quan- to per te sof-|fer- si, e fa-|ti- ch'e dis- sag- * * *|gi, le mor-|bi- dez- z'e gl'ag- * * * * *|* gi, for- se|per _ _ _ _ te non|
w: Que- sto'è che mi'a- do-|lo- ra, ben che|pic- ciol tor- men- * * *|to, ve- der|ch'a- tri con- ten- * * * * *|* to, nel- le|tue _ _ _ _ brac- cia|
w: Io por- to'e me- co|por- to, la mia|fè la tua fro- * * *|de, li- be-|ro'in tan- to go- * * * * *|* de, il cor|d'es- * * * * ser ri-|
 d2 ^c2 d4 | z2 AE FEFG | A2 AA A2 ^G2 | A8 ::[M:3/4] E2 A2 B2 | c4 B2 | A3 G F2 | E2 D4 | %15
w: gua- * i,|so- pra'in par- * * *|te'i- mi- ci gua- *|i.|Gia che non|pos- so|pa- le- fat-|ti'à pie-|
w: ces- * so,|e'un a- mor _ _ _|_ sen- za'ec- ces- *|so.|Che can- toa-|man- te|son quan- to|ria- ma-|
w: mar- * ti,|chi mi mos- * * *|* se'ad a- mar- *|ti.|Al- tro che'|vez- zi'e|le pro- fer-|te so-|
w: per- * si,|for- se per _ _ _|_ te non per- *|si.|For- se let-|to non|fei no- tur-|no'er- ran-|
w: mo- * ra,|nel- le tue _ _ _|_ brac- cia mo- *|ra.|Ed io che|qua- si|pos- ses- sor|gia fu-|
w: sor- * to,|il cor d'es- * * *|* ser ri- sor- *|to.|Fil- li- de|tuo fa-|ro se fa-|rai mi-|
 C2 E2 E2 | ^F4 G2 | A2 A4 | G2 D2 E2 | F6 | E4 D2 | D6 | C6- | C6 | z2 c2 c2 | B2 A2 G2 | A6 | %27
w: no, quan- to|chiu- s'ho|nel se|no, quan- to|chiu-|s'ho nel|se|no,|_|e pro-|var- ti ch'A-|mo-|
w: to, sprez- zo|se son|sprez- za-|to, sprez- zo|se|son sprez-|za-|to,|_|che non|co- no- sce'il|co-|
w: le, di tue|fin- ti|pa- ro-|le, di tue|fin-|ti pa-|ro-|le,|_|ch'es- ch'e|lac- ci d'A-|mo-|
w: te, pic- ciol|Pi- no|va- gan-|te, pic- ciol|Pi-|no va-|gan-|te,|_|e pur|non heb- be'il|co-|
w: i, ti ve-|da fat-|t'al- tru-|i, ti ve-|da|fat- t'al-|tru-|i,|_|non per|col- pa del|co-|
w: a, cio ba-|sti'e tan-|to fi-|a, cio ba-|sti'e|tan- to|fi-|a,|_|e con|e- gual' a-|mo-|
 G2 c4 | c2 B4 | c4 A2 | G4 G2 | A3 G F2 | E2 D4 | C6- | C6 | z2 c2 c2 | B2 A2 G2 | A6 | G6 | %39
w: re, fu|pos- ses-|sor mà|non ti-|ran _ _|del co-|re,|_|e pro-|var- ti ch'A-|mo-|re,|
w: re, nel|im- pe-|rio d'A-|mor ti-|ran- * *|no'A- mo-|re,|_|che non|co- no- sce'il|co-|re,|
w: re, pren-|der vol-|can nel-|le sue|fro _ _|d'il co-|re,|_|ch'e- sche|lac- ci d'A-|mo-|re,|
w: re, per|pre- mio|del pa-|tir cam-|bio _ _|d'A- mo-|re,|_|e pur|non heb- be'il|co-|re,|
w: re, che|non pro-|mis- se|sen- za|l'o- * *|ro'A- mo-|re,|_|non per|col- pa del|co-|re,|
w: re, di|due cor|se vo-|rai fa-|ter- * *|no'un co-|re,|_|e con|e- gual' a-|mo|re,|
 z2 F2 F2 | E2 D2 C2 | D6 | C6 | z4 c2 | c2 B4 | c4 A2 | B3 A c2 | _B2 A4 | G4 G2 | G2 ^F4 | %50
w: e pro-|var- ti ch'A-|mo-|re,|fu|pos- ses-|sor mà|non ti- ran|del co-|re, fu|pos- ses-|
w: che non|co- no- sce'il|co-|re,|nel|im- pe-|rio d'A-|mor ti- ran-|no'A- mo-|re, nel|im- pe-|
w: ch'e- sche|lac- ci d'A-|mo-|re,|pren-|der vol-|can nel-|le sue fro-|d'il co-|re, pren-|der vol-|
w: e pur|non heb- be'il|co-|re,|per|pre- mio|del par-|tir cam- bio|d'A- mo-|re, per|pre- mio|
w: non per|col- pa del|co-|re,|che|non pro-|mis- se|sen- za l'o-|ro'A- mo-|re, che|non pro-|
w: e con|e- gual a-|mo-|re,|di|due cor|se vo-|rai fa- ter-|no'un co-|re, di|due cor|
 G4 E2 | F3 E G2 | F2 E4 | D6 :| %54
w: sor mà|nin ti- ran|del co-|re.|
w: rio d'A-|mor ti- ran-|no'A- mo-|re.|
w: can nel-|le sue fro-|d'il co-|re.|
w: del par-|tir cam- bio|d'A- mo-|re.|
w: mis- se|sen- za l'o-|ro'A- mo-|re.|
w: se vo-|rai fa re-|mo'un co-|re.|
V:2
 A6 B2 | A4 A4- | A2 G2 A4 | c8 | c2 A2 G2 A2 | B6 A2 | B2 A2 d2 _B2 | A4 A4 | A6 G2 | c2 d2 B4 | %10
 c8 ::[M:3/4] c4 B2 | c4 B2 | c6 | G6 | G2 G4 | ^F4 G2 | c2 A4 | B6 | A4 d2 | G4 A2 | B6 | c6 | %23
 G2 A2 B2 | c6 | G6 | F6 | E2 F2 G2 | A2 B2 F2 | c2 A4 | c6 | A6 | G2 B4 | G6 | G2 A2 c2 | A4 c2 | %36
 B2 A2 B2 | c6 | G2 A2 G2 | A6 | c6 | G4 F2 | G4 A2 | c2 G4 | A2 B2 A2 | G4 ^F2 | G6 | G2 F4 | %48
 G4 G2 | c2 A4 | B4 c2 | A4 d2 | d4 ^c2 | d6 :| %54
V:3
 F6 D2 | F6 F2 | D2 C2 C4 | E8 | G2 ^F2 E2 D2 | D6 D2 | G2 E2 D4 | E4 F4 | D2 E2 F2 E2 | A2 F2 E4 | %10
 E8 ::[M:3/4] E6 | E4 ^G2 | A6 | E2 C2 B,2 | C6 | D6 | E2 F4 | D6 | F2 E2 D2 | E4 F2 | D6 | E6 | %23
 D2 C2 D2 | E6 | D4 E2 | C6 | C4 E2 | F4 D2 | E2 F4 | C2 G4 | F6 | E2 D4 | E6 | D2 F2 E2 | F6 | %36
 D4 E2 | A6 | E2 D2 E2 | F6 | G6 | C2 D4 | E4 C2 | F2 E4 | F2 D4 | E4 D2 | D4 E2 | D6 | B,4 D2 | %49
 E2 D4 | D4 A2 | F4 _B2- | B2 A4 | F6 :| %54
V:4
 D,2 E,2 F,2 G,2 | A,4 D,3 ^C, | D,2 E,2 F,4 | C,4 C,4 | C,2 D,2 E,2 ^F,2 | G,4 G,2 ^F,2 | %6
 G,2 A,2 _B,2 G,2 | A,4 D,3 E, | F,2 ^C,2 D,2 E,2 | F,2 D,2 E,4 | A,,8 ::[M:3/4] A,4 ^G,2 | %12
 A,4 E,2 | F,3 E, D,2 | C,2 G,4 | C,4 C,2 | D,2 B,,4 | C,2 D,4 | G,,4 G,,2 | D,2 A,,2 B,,2 | %20
 C,2 C,,2 F,,2 | G,,4 G,,2 | C,2 C2 C2 | B,2 A,2 G,2 | A,4 A,2 | G,2 F,2 E,2 | F,2 F,2 F,2 | %27
 E,2 D,2 C,2 | D,4 D,2 | C,2 F,4 | F,2 E,4 | F,2 D,4 | C,2 G,4 | C,2 C2 C2 | B,2 A,2 G,2 | %35
 A,4 A,2 | G,2 F,2 E,2 | F,2 F,2 F,2 | E,2 D,2 C,2 | D,4 D,2 | C,4 C,2 | C,2 B,,4 | C,4 F,2 | %43
 F,2 E,4 | F,2 D,4 | C,4 D,2 | G,,4 C,2- | C,2 D,4 | G,,4 G,,2 | A,,4 A,,2 | G,,4 A,,2 | %51
 D,4 G,,2- | G,,2 A,,4 | D,6 :| %54

